svgs/thin/folder-grid.svg

<svg xmlns="http://www.w3.org/2000/svg" viewBox="0 0 512 512"><!-- Font Awesome Pro 6.0.0-alpha2 by @fontawesome - https://fontawesome.com License - https://fontawesome.com/license (Commercial License) --><path d="M464 96H272L217.373 41.375C211.371 35.371 203.232 32 194.746 32H48C21.49 32 0 53.492 0 80V432C0 458.508 21.49 480 48 480H464C490.51 480 512 458.508 512 432V144C512 117.492 490.51 96 464 96ZM496 432C496 449.672 481.674 464 464 464H48C30.326 464 16 449.672 16 432V80C16 62.328 30.326 48 48 48H188.117C196.604 48 204.742 51.371 210.744 57.371L265.371 112H464C481.674 112 496 126.328 496 144V432ZM144 240H112C94.355 240 80 254.355 80 272V304C80 321.645 94.355 336 112 336H144C161.645 336 176 321.645 176 304V272C176 254.355 161.645 240 144 240ZM160 304C160 312.836 152.836 320 144 320H112C103.164 320 96 312.836 96 304V272C96 263.164 103.164 256 112 256H144C152.836 256 160 263.164 160 272V304ZM272 240H240C222.355 240 208 254.355 208 272V304C208 321.645 222.355 336 240 336H272C289.645 336 304 321.645 304 304V272C304 254.355 289.645 240 272 240ZM288 304C288 312.836 280.836 320 272 320H240C231.164 320 224 312.836 224 304V272C224 263.164 231.164 256 240 256H272C280.836 256 288 263.164 288 272V304ZM400 240H368C350.355 240 336 254.355 336 272V304C336 321.645 350.355 336 368 336H400C417.645 336 432 321.645 432 304V272C432 254.355 417.645 240 400 240ZM416 304C416 312.836 408.836 320 400 320H368C359.164 320 352 312.836 352 304V272C352 263.164 359.164 256 368 256H400C408.836 256 416 263.164 416 272V304Z"/></svg>

<svg xmlns="http://www.w3.org/2000/svg" viewBox="0 0 512 512"><!--! Font Awesome Pro 6.0.0-alpha3 by @fontawesome - https://fontawesome.com License - https://fontawesome.com/license (Commercial License) --><path d="M464 96h-192L217.4 41.38C211.4 35.37 203.2 32 194.7 32H48C21.49 32 0 53.49 0 80v352C0 458.5 21.49 480 48 480h416c26.51 0 48-21.49 48-48v-288C512 117.5 490.5 96 464 96zM496 432c0 17.67-14.33 32-32 32h-416c-17.67 0-32-14.33-32-32v-352c0-17.67 14.33-32 32-32h140.1c8.486 0 16.62 3.371 22.63 9.371L265.4 112H464c17.67 0 32 14.33 32 32V432zM144 240h-32c-17.64 0-32 14.36-32 32v32c0 17.64 14.36 32 32 32h32c17.64 0 32-14.36 32-32v-32C176 254.4 161.6 240 144 240zM160 304C160 312.8 152.8 320 144 320h-32C103.2 320 96 312.8 96 304v-32C96 263.2 103.2 256 112 256h32C152.8 256 160 263.2 160 272V304zM272 240h-32c-17.64 0-32 14.36-32 32v32c0 17.64 14.36 32 32 32h32c17.64 0 32-14.36 32-32v-32C304 254.4 289.6 240 272 240zM288 304c0 8.836-7.164 16-16 16h-32C231.2 320 224 312.8 224 304v-32C224 263.2 231.2 256 240 256h32C280.8 256 288 263.2 288 272V304zM400 240h-32c-17.64 0-32 14.36-32 32v32c0 17.64 14.36 32 32 32h32c17.64 0 32-14.36 32-32v-32C432 254.4 417.6 240 400 240zM416 304c0 8.836-7.164 16-16 16h-32C359.2 320 352 312.8 352 304v-32C352 263.2 359.2 256 368 256h32C408.8 256 416 263.2 416 272V304z"/></svg>
